components/icon/svg/24/transport_bus.svg

<svg xmlns="http://www.w3.org/2000/svg" viewBox="0 0 24 24"><path d="M6 6v2c-.6 0-1 .4-1 1v2c0 .6.4 1 1 1v5c0 .6.4 1 1 1v1.5c0 .3.2.5.5.5h2c.3 0 .5-.2.5-.5V18h4v1.5c0 .3.2.5.5.5h2c.3 0 .5-.2.5-.5V18c.6 0 1-.4 1-1v-5c.6 0 1-.4 1-1V9c0-.6-.4-1-1-1V6c0-1.1-.9-2-2-2H8c-1.1 0-2 .9-2 2zm3.5 11h-1c-.3 0-.5-.2-.5-.5s.2-.5.5-.5h1c.3 0 .5.2.5.5s-.2.5-.5.5zm6 0h-1c-.3 0-.5-.2-.5-.5s.2-.5.5-.5h1c.3 0 .5.2.5.5s-.2.5-.5.5zM17 9v4c0 .6-.4 1-1 1H8c-.6 0-1-.4-1-1V9c0-.6.4-1 1-1h8c.6 0 1 .4 1 1zM9.5 5h5c.3 0 .5.2.5.5s-.2.5-.5.5h-5c-.3 0-.5-.2-.5-.5s.2-.5.5-.5z" fill="#3f434c"/></svg>

<?xml version="1.0" encoding="utf-8"?>
<!-- Generator: Adobe Illustrator 24.1.2, SVG Export Plug-In . SVG Version: 6.00 Build 0)  -->
<svg version="1.1" xmlns="http://www.w3.org/2000/svg" xmlns:xlink="http://www.w3.org/1999/xlink" x="0px" y="0px"
	 viewBox="0 0 24 24" style="enable-background:new 0 0 24 24;" xml:space="preserve">
<style type="text/css">
	.st0{fill:#3F434C;}
</style>
<g id="guides">
</g>
<g id="Ebene_1">
	<path class="st0" d="M6,6v2C5.4,8,5,8.4,5,9v2c0,0.6,0.4,1,1,1v5c0,0.6,0.4,1,1,1v1.5C7,19.8,7.2,20,7.5,20h2
		c0.3,0,0.5-0.2,0.5-0.5V18h4v1.5c0,0.3,0.2,0.5,0.5,0.5h2c0.3,0,0.5-0.2,0.5-0.5V18c0.6,0,1-0.4,1-1v-5c0.6,0,1-0.4,1-1V9
		c0-0.6-0.4-1-1-1V6c0-1.1-0.9-2-2-2H8C6.9,4,6,4.9,6,6z M9.5,17h-1C8.2,17,8,16.8,8,16.5S8.2,16,8.5,16h1c0.3,0,0.5,0.2,0.5,0.5
		S9.8,17,9.5,17z M15.5,17h-1c-0.3,0-0.5-0.2-0.5-0.5s0.2-0.5,0.5-0.5h1c0.3,0,0.5,0.2,0.5,0.5S15.8,17,15.5,17z M17,9v2v2
		c0,0.6-0.4,1-1,1H8c-0.6,0-1-0.4-1-1v-2V9c0-0.6,0.4-1,1-1h8C16.6,8,17,8.4,17,9z M9.5,5h5C14.8,5,15,5.2,15,5.5S14.8,6,14.5,6h-5
		C9.2,6,9,5.8,9,5.5S9.2,5,9.5,5z"/>
</g>
</svg>
